source/misc/Ubuntu.svg

<svg width="100" height="100" viewBox="0 0 100 100" fill="none" xmlns="http://www.w3.org/2000/svg">
<path d="M93.75 50C93.75 74.15 74.1719 93.75 50 93.75C25.8281 93.75 6.25 74.15 6.25 50C6.25 25.8281 25.8281 6.25 50 6.25C74.1719 6.25 93.75 25.8281 93.75 50Z" fill="#E95420"/>
<path d="M21.3173 44.2384C18.162 44.2384 15.625 46.8328 15.625 50.0109C15.625 53.1891 18.1833 55.7834 21.3173 55.7834C24.4513 55.7834 27.0097 53.1891 27.0097 50.0109C27.0097 46.8109 24.4513 44.2384 21.3173 44.2384ZM61.9738 70.4631C59.2447 72.0631 58.3281 75.5872 59.8844 78.3544C61.4622 81.1219 64.9372 82.0731 67.6659 80.4731C70.395 78.8734 71.3116 75.3494 69.7553 72.5819C68.1566 69.8362 64.6813 68.885 61.9738 70.4631ZM33.6828 50.0109C33.6828 44.3031 36.4756 39.2656 40.7606 36.2175L36.6034 29.1476C31.6147 32.5203 27.9264 37.6875 26.3701 43.7194C28.1609 45.2112 29.3122 47.4812 29.3122 50.0109C29.3122 52.5403 28.1609 54.8103 26.3701 56.3022C27.9051 62.3341 31.6147 67.5012 36.6034 70.8741L40.7606 63.8044C36.4756 60.7559 33.6828 55.7184 33.6828 50.0109ZM50.3119 33.1472C59.0103 33.1472 66.1309 39.8928 66.8772 48.5191L75 48.3894C74.595 42.0331 71.8659 36.3253 67.6447 32.1312C65.47 32.9528 62.9756 32.8231 60.8225 31.5691C58.6478 30.2935 57.3047 28.1748 56.9209 25.8398C54.8103 25.2561 52.5931 24.9318 50.3119 24.9318C46.3678 24.9318 42.6581 25.8614 39.3537 27.5262L43.3191 34.7041C45.4297 33.7094 47.8175 33.1472 50.3119 33.1472ZM50.3119 66.8744C47.8175 66.8744 45.4297 66.3122 43.2978 65.3178L39.3325 72.4953C42.6369 74.1603 46.3678 75.0897 50.2906 75.0897C52.5719 75.0897 54.7891 74.7656 56.8997 74.1819C57.2622 71.8684 58.6266 69.7281 60.8013 68.4525C62.9544 67.1769 65.47 67.0687 67.6234 67.8903C71.8234 63.6962 74.5737 57.9884 74.9788 51.6322L66.8559 51.5025C66.1309 60.1072 59.0103 66.8744 50.3119 66.8744ZM61.9525 29.5368C64.6813 31.1367 68.1566 30.1854 69.7341 27.4181C71.3116 24.6507 70.3737 21.1267 67.6447 19.5268C64.9159 17.927 61.4406 18.8782 59.8631 21.6456C58.3069 24.4129 59.2447 27.937 61.9525 29.5368Z" fill="white"/>
</svg>

<svg width="100" height="100" viewBox="0 0 100 100" fill="none" xmlns="http://www.w3.org/2000/svg"><path d="M93.75 50c0 24.15-19.578 43.75-43.75 43.75S6.25 74.15 6.25 50C6.25 25.828 25.828 6.25 50 6.25S93.75 25.828 93.75 50Z" fill="#E95420"/><path d="M21.317 44.238c-3.155 0-5.692 2.595-5.692 5.773 0 3.178 2.558 5.772 5.692 5.772 3.134 0 5.693-2.594 5.693-5.772 0-3.2-2.559-5.773-5.693-5.773Zm40.657 26.225c-2.73 1.6-3.646 5.124-2.09 7.891 1.578 2.768 5.053 3.72 7.782 2.12s3.646-5.125 2.09-7.892c-1.6-2.746-5.075-3.697-7.782-2.119ZM33.683 50.011a16.876 16.876 0 0 1 7.078-13.794l-4.158-7.07c-4.988 3.373-8.677 8.54-10.233 14.572a8.183 8.183 0 0 1 2.942 6.292 8.18 8.18 0 0 1-2.942 6.291 25.086 25.086 0 0 0 10.233 14.572l4.158-7.07a16.877 16.877 0 0 1-7.078-13.793Zm16.629-16.864c8.698 0 15.819 6.746 16.565 15.372L75 48.39a25.112 25.112 0 0 0-7.355-16.258 7.93 7.93 0 0 1-6.822-.562c-2.175-1.275-3.518-3.394-3.902-5.73a24.773 24.773 0 0 0-6.61-.907c-3.943 0-7.653.93-10.957 2.594l3.965 7.178a16.42 16.42 0 0 1 6.993-1.557Zm0 33.727c-2.494 0-4.882-.562-7.014-1.556l-3.965 7.177A24.306 24.306 0 0 0 50.29 75.09c2.28 0 4.498-.324 6.609-.908a8.08 8.08 0 0 1 3.901-5.73c2.153-1.275 4.669-1.383 6.822-.562a25.217 25.217 0 0 0 7.356-16.258l-8.123-.13c-.725 8.605-7.846 15.372-16.544 15.372Zm11.64-37.337c2.73 1.6 6.205.648 7.782-2.119 1.578-2.767.64-6.291-2.09-7.891-2.728-1.6-6.203-.649-7.78 2.119-1.557 2.767-.62 6.291 2.089 7.89Z" fill="#fff"/></svg>
